packages/icon/src/images/social/social-you-tube-circle.svg

<svg width="56" height="56" viewBox="0 0 56 56" fill="none" xmlns="http://www.w3.org/2000/svg">
<path fill-rule="evenodd" clip-rule="evenodd" d="M28 56C43.464 56 56 43.464 56 28C56 12.536 43.464 0 28 0C12.536 0 0 12.536 0 28C0 43.464 12.536 56 28 56ZM9.5 28C9.5 34.0142 9.5 37.0212 11.3037 38.9344C11.3855 39.0211 11.4695 39.1056 11.5558 39.1877C13.46 41 16.4529 41 22.4387 41H33.5613C39.5471 41 42.54 41 44.4442 39.1877C44.5305 39.1056 44.6145 39.0211 44.6963 38.9344C46.5 37.0212 46.5 34.0142 46.5 28C46.5 21.9858 46.5 18.9788 44.6963 17.0656C44.6145 16.9789 44.5305 16.8944 44.4442 16.8123C42.54 15 39.5471 15 33.5613 15H22.4387C16.4529 15 13.46 15 11.5558 16.8123C11.4695 16.8944 11.3855 16.9789 11.3037 17.0656C9.5 18.9788 9.5 21.9858 9.5 28ZM33.7883 28L24.5951 22.6671V33.3329L33.7883 28Z" fill="#51247A"/>
</svg>

<svg xmlns="http://www.w3.org/2000/svg" viewBox="0 0 56 56" style="enable-background:new 0 0 56 56" xml:space="preserve"><path d="M28 56c15.5 0 28-12.5 28-28S43.5 0 28 0 0 12.5 0 28s12.5 28 28 28zM9.5 28c0 6 0 9 1.8 10.9l.3.3C13.5 41 16.5 41 22.4 41h11.1c6 0 9 0 10.9-1.8l.3-.3C46.5 37 46.5 34 46.5 28s0-9-1.8-10.9l-.3-.3C42.5 15 39.5 15 33.6 15H22.4c-6 0-9 0-10.9 1.8l-.3.3C9.5 19 9.5 22 9.5 28zm24.3 0-9.2-5.3v10.7l9.2-5.4z" style="fill-rule:evenodd;clip-rule:evenodd"/></svg>
